img/social/facebook.svg

<svg width="21.339" height="20" fill="none" xmlns="http://www.w3.org/2000/svg"><defs><clipPath id="a"><path fill="#fff" fill-opacity="0" d="M0 0h21.339v20H0z"/></clipPath></defs><path fill="none" d="M0 0h21.339v20H0z"/><g clip-path="url(#a)"><path d="M16 0h-2.77c-3.11 0-5.12 1.93-5.12 4.92v2.27H5.33c-.24 0-.43.18-.43.4v3.29c0 .23.19.41.43.41h2.78v8.3c0 .22.2.41.44.41h3.63c.24 0 .43-.19.43-.41v-8.3h3.26c.24 0 .43-.18.43-.41V7.59c0-.1-.04-.21-.12-.28a.465.465 0 0 0-.31-.12h-3.26V5.26c0-.92.24-1.39 1.52-1.39H16c.24 0 .43-.18.43-.41V.41c0-.23-.19-.41-.43-.41Z" fill="#FFF"/></g></svg>

<svg width="21.339142" height="20.000000" viewBox="0 0 21.3391 20" fill="none" xmlns="http://www.w3.org/2000/svg" xmlns:xlink="http://www.w3.org/1999/xlink">
	<desc>
			Created with Pixso.
	</desc>
	<defs>
		<clipPath id="clip3_105">
			<rect width="21.339134" height="20.000000" fill="white" fill-opacity="0"/>
		</clipPath>
	</defs>
	<rect width="21.339134" height="20.000000" fill="#FFFFFF" fill-opacity="0"/>
	<g clip-path="url(#clip3_105)">
		<path d="M16 0L13.23 0C10.12 0 8.11 1.93 8.11 4.92L8.11 7.19L5.33 7.19C5.09 7.19 4.9 7.37 4.9 7.59L4.9 10.88C4.9 11.11 5.09 11.29 5.33 11.29L8.11 11.29L8.11 19.59C8.11 19.81 8.31 20 8.55 20L12.18 20C12.42 20 12.61 19.81 12.61 19.59L12.61 11.29L15.87 11.29C16.11 11.29 16.3 11.11 16.3 10.88L16.3 7.59C16.3 7.49 16.26 7.38 16.18 7.31C16.09 7.23 15.98 7.19 15.87 7.19L12.61 7.19L12.61 5.26C12.61 4.34 12.85 3.87 14.13 3.87L16 3.87C16.24 3.87 16.43 3.69 16.43 3.46L16.43 0.41C16.43 0.18 16.24 0 16 0Z" fill="#FFFFFF" fill-opacity="1.000000" fill-rule="nonzero"/>
	</g>
</svg>
